X:3536
T:Lark in the Morning, The
O:england
R:Jig
S:John B. Walsh
M:6/8
L:1/8
K:G
dB|:AFA AFA|BGB BdB|AFA AFA|fed BdB|
AFA AFA|BGB BAB|def afe|fed BdB:|
|:def a2a|baf afe|def g2e|fed BAB|
def ~a3|baf a2f|~g3 faf|edB BAB:|
|:.d2f fef|fef fef|.d2f fef|edB BAB|
.d2f fef|fef fed|~g3 faf|edB BAF:|
|:Add fdd|ede fdB|Add fdd|edB BAF|
Add fdd|ede fed|~g3 faf|edB BAF:|


